ui/StatusQ/src/assets/img/icons/discord-bridge.svg

<svg fill="none" height="16" viewBox="0 0 16 16" width="16" xmlns="http://www.w3.org/2000/svg" xmlns:xlink="http://www.w3.org/1999/xlink"><clipPath id="a"><path d="m3 4h10v8h-10z"/></clipPath><rect fill="#5865f2" height="16" rx="8" width="16"/><g clip-path="url(#a)"><path d="m11.471 4.66999c-.657-.31751-1.3506-.54275-2.06311-.66999-.0975.18397-.18571.37324-.26428.56704-.75891-.12071-1.53068-.12071-2.2896 0-.07861-.19378-.16682-.38305-.26427-.56704-.71293.12831-1.40699.35409-2.06466.67165-1.30564 2.03902-1.65958 4.02739-1.48261 5.98755.76461.5963 1.62044 1.0498 2.53028 1.3408.20486-.2908.38615-.5994.54192-.9224-.29587-.1166-.58143-.2605-.85339-.43.07157-.0548.14157-.1113.20922-.1661.79133.3928 1.65502.5965 2.52949.5965s1.73817-.2037 2.52951-.5965c.0684.059.1384.1154.2092.1661-.2725.1698-.5586.3139-.85496.4309.15556.3228.33686.6311.54196.9215.9106-.2898 1.7671-.7431 2.5318-1.34.2077-2.27312-.3547-4.24323-1.4865-5.99001zm-5.13217 4.78373c-.49316 0-.90058-.4724-.90058-1.05355 0-.58116.39327-1.0577.89901-1.0577s.91002.47654.90137 1.0577c-.00866.58115-.3972 1.05355-.8998 1.05355zm3.32232 0c-.49394 0-.89979-.4724-.89979-1.05355 0-.58116.39326-1.0577.89979-1.0577.50655 0 .90765.47654.89905 1.0577-.0087.58115-.3965 1.05355-.89905 1.05355z" fill="#fff"/></g></svg>

<svg width="16" height="16" viewBox="0 0 16 16" fill="none" xmlns="http://www.w3.org/2000/svg">
<rect width="16" height="16" rx="8" fill="#5865F2"/>
<g clip-path="url(#clip0_50821_248568)">
<path d="M11.471 4.66999C10.814 4.35248 10.1204 4.12724 9.40789 4C9.31039 4.18397 9.22218 4.37324 9.14361 4.56704C8.3847 4.44633 7.61293 4.44633 6.85401 4.56704C6.7754 4.37326 6.68719 4.18399 6.58974 4C5.87681 4.12831 5.18275 4.35409 4.52508 4.67165C3.21944 6.71067 2.8655 8.69904 3.04247 10.6592C3.80708 11.2555 4.66291 11.709 5.57275 12C5.77761 11.7092 5.9589 11.4006 6.11467 11.0776C5.8188 10.961 5.53324 10.8171 5.26128 10.6476C5.33285 10.5928 5.40285 10.5363 5.4705 10.4815C6.26183 10.8743 7.12552 11.078 7.99999 11.078C8.87446 11.078 9.73816 10.8743 10.5295 10.4815C10.5979 10.5405 10.6679 10.5969 10.7387 10.6476C10.4662 10.8174 10.1801 10.9615 9.88374 11.0785C10.0393 11.4013 10.2206 11.7096 10.4257 12C11.3363 11.7102 12.1928 11.2569 12.9575 10.66C13.1652 8.38688 12.6028 6.41677 11.471 4.66999ZM6.33883 9.45372C5.84567 9.45372 5.43825 8.98132 5.43825 8.40017C5.43825 7.81901 5.83152 7.34247 6.33726 7.34247C6.843 7.34247 7.24728 7.81901 7.23863 8.40017C7.22997 8.98132 6.84143 9.45372 6.33883 9.45372ZM9.66115 9.45372C9.16721 9.45372 8.76136 8.98132 8.76136 8.40017C8.76136 7.81901 9.15462 7.34247 9.66115 7.34247C10.1677 7.34247 10.5688 7.81901 10.5602 8.40017C10.5515 8.98132 10.1637 9.45372 9.66115 9.45372Z" fill="white"/>
</g>
<defs>
<clipPath id="clip0_50821_248568">
<rect width="10" height="8" fill="white" transform="translate(3 4)"/>
</clipPath>
</defs>
</svg>
